symbols/web/cloud_done/materialsymbolsoutlined/cloud_done_wght600gradN25fill1_24px.svg

<svg xmlns="http://www.w3.org/2000/svg" height="24" width="24"><path d="m10.3 16.875 5.65-5.675-1.475-1.475-4.175 4.15-2.1-2.1-1.475 1.475ZM6.625 20.25q-2.4 0-4.112-1.65Q.8 16.95.8 14.575q0-2.05 1.188-3.663Q3.175 9.3 5.125 8.875 5.8 6.575 7.7 5.162 9.6 3.75 12 3.75q2.9 0 4.975 2 2.075 2 2.225 4.875v.1q1.725.275 2.862 1.638 1.138 1.362 1.138 3.112 0 2-1.4 3.388-1.4 1.387-3.4 1.387Z"/></svg>

<svg xmlns="http://www.w3.org/2000/svg" height="24" width="24"><path d="M6.625 20.25Q4.225 20.25 2.513 18.6Q0.8 16.95 0.8 14.575Q0.8 12.525 1.988 10.912Q3.175 9.3 5.125 8.875Q5.8 6.575 7.7 5.162Q9.6 3.75 12 3.75Q14.9 3.75 16.975 5.75Q19.05 7.75 19.2 10.625V10.725Q20.925 11 22.062 12.363Q23.2 13.725 23.2 15.475Q23.2 17.475 21.775 18.863Q20.35 20.25 18.35 20.25ZM10.3 16.875 15.95 11.2 14.475 9.725 10.3 13.875 8.2 11.775 6.725 13.25Z"/></svg>
